X:1
T:The Great Bon-Bon Scandal
M:C
L:1/8
Q:170
C:(c) Greg Anderson
R:Reel
H:Who would have thought that a kids' project to have a "Kool-Aid" and
H:candy stand near the pool could turn into an apartment complex-wide
H:hot-potato
K:Em
EB, B,F ED B,D|ED GA B2 ed|^c2 c3 B A2|B2 B^c BA GF|
EB, B,F ED B,D|ED DG DA DB|AG EA GE FD|1E6 GF:|
2E6 Bd|:ef ed Bd ed|BG FE- E2 FE|DB, A,B, D2 DE|F2 FG- GA Bd|
ef ed Bd ed|BG FE- EE FE|DB, A,B, DE FD|1E6 Bd:|2E6 GF||
